X: 118
T: A Breton In Paris
R: reel
M: 4/4
K: Gmajor
A2ed gede|c2 A2 edge|deAB c2BA|GABd B2AG|
A2ed gede|c2 A2 gede|ABcA d2BA|GABd B2GB:|
dege a2c'b|baga ega2|c'bba gaeg|a2 de gedB|
dege a2c'b|baga ega2|c'bba gaeg|a2 de gedB:|

